X: 28681
T: Mutt's Favourite
R: reel
M: 4/4
K: Adorian
|:EAAc B2Ac|BAAg feea|EAAc B2Ac|BGGA BcdD|
EAAc B2Ac|BAAg feef|gfgd e2dg|BGBc dBGB:|
|:EA~A2 fA~A2|gA~A2 aA~A2|EAfA gAaA|efdg BAAD:|

